X:1
T:Moved by Love
T:Moved by Love
T:Frederick Arthur Graves
T:Frederick Arthur Graves, 1891
T:Public Domain Courtesy of the Cyber Hymnal™
C:Frederick Arthur Graves
Z:Public Domain
Z:Courtesy of the Cyber Hymnal™
%%score ( 1 2 ) ( 3 4 )
L:1/8
Q:1/4=140
M:6/4
K:F
V:1 treble 
V:2 treble 
V:3 bass 
V:4 bass 
V:1
 [FA]4 [FA]2 [CG]4 [CF]2 | [FB]4 [FB]2 [FA]6 | [Fc]4 [Fd]2 [Fc]4 [FA]2 | F4 [FA]2 [EG]6 | %4
w: 1.~Lord, Thy pity- ing|eye can see,|How I long to|learn of Thee,|
w: 2.~Cleansed from self and|works of flesh,|Grant me, Lord, Thy|truth and grace;|
w: 3.~’Tis so sweet this|life of trust,|Yield- ing not be-|cause I must,|
w: 4.~Reach- ing out for|o- thers, too,|There is much for|us to do;|
 [FA]4 [FA]2 [CG]4 [CF]2 | [DF]4 [B,D]2 [A,C]6 | [CF]4 [FA]2 [Fc]4 [FA]2 | [FA]4 [EG]2 F6 || %8
w: Long to trust Thy|strength en- tire;|Fill me with Thy|ho- ly fire.|
w: Make me ear- nest,|brave, yet mild;|Keep me ev- er|un- de- filed.|
w: As in pot- ter’s|hands the clay,|Mold- ed, Lord, in|Thine own way.|
w: In this world so|dark with sin,|God of love, shine|in, shine in.|
"^Refrain" [EG]4 [FA]2 [GB]6 | [FA]4 [Bd]2 [Ac]6 | [Bd]4 [Bd]2 [Ac]4 [FA]2 | [Ac]4 [FA]2 [EG]6 | %12
w: ||||
w: Moved by love,|moved by love,|Let me ne- ver|from Thee rove;|
w: ||||
w: ||||
 [FA]4 [FA]2 [CG]4 [CF]2 | [FB]4 [FB]2 [FA]6 | [Fc]4 [Fd]2 [Fc]4 F2 | [FA]4 [EG]2 F6 |] %16
w: ||||
w: Pre- cious Sav- ior,|O so dear,|May I love Thee|more and more.|
w: ||||
w: ||||
V:2
 x12 | x12 | x12 | F4 x8 | x12 | x12 | x12 | x6 F6 || x12 | x12 | x12 | x12 | x12 | x12 | x10 F2 | %15
 x6 F6 |] %16
V:3
 [F,C]4 [F,C]2 [F,B,]4 [F,A,]2 | [B,,D]4 [B,,D]2 [F,C]6 | [F,A,]4 [F,B,]2 [F,A,]4 [F,C]2 | %3
 [A,C]4 [F,C]2 [C,C]6 | [F,C]4 [F,C]2 [F,B,]4 [F,A,]2 | [B,,B,]4 [B,,F,]2 F,6 | %6
 [F,A,]4 [F,C]2 [F,A,]4 [F,C]2 | [C,C]4 [C,B,]2 [F,A,]6 || [C,C]4 [C,C]2 [C,C]6 | %9
 [F,C]4 [F,F]2 [F,F]6 | [B,F]4 [B,F]2 [F,F]4 [F,C]2 | [F,C]4 [F,C]2 [C,C]6 | %12
 [F,C]4 [F,C]2 [F,B,]4 [F,A,]2 | [B,,D]4 [B,,D]2 [F,C]6 | [F,A,]4 [F,B,]2 [F,A,]4 [A,,C]2 | %15
 [C,C]4 [C,B,]2 [F,A,]6 |] %16
V:4
 x12 | x12 | x12 | x12 | x12 | x6 F,6 | x12 | x12 || x12 | x12 | x12 | x12 | x12 | x12 | x12 | %15
 x12 |] %16

